assets/svg/delete.svg

<svg height="32" viewBox="0 0 1024 1024" width="32" xmlns="http://www.w3.org/2000/svg"><g fill="#8a8a8a"><path d="m607.897867 768.043004c-17.717453 0-31.994625-14.277171-31.994625-31.994625v-352.112884c0-17.717453 14.277171-31.994625 31.994625-31.994625s31.994625 14.277171 31.994625 31.994625v351.94087c-.000001 17.717453-14.277172 32.166639-31.994625 32.166639z"/><path d="m415.930119 768.043004c-17.717453 0-31.994625-14.277171-31.994625-31.994625l.000001-352.112884c0-17.717453 14.277171-31.994625 31.994625-31.994625 17.717453 0 31.994625 14.277171 31.994625 31.994625v351.94087c-.000001 17.717453-14.277172 32.166639-31.994626 32.166639z"/><path d="m928.016126 223.962372h-159.973123l.000001-63.989249c0-52.980346-42.659499-95.983874-95.295817-95.983874h-320.806317c-52.980346 0-95.983874 43.003528-95.983874 95.983874v63.989249h-159.973123c-17.717453 0-31.994625 14.277171-31.994625 31.994625s14.277171 31.994625 31.994625 31.994625h832.032253c17.717453 0 31.994625-14.277171 31.994625-31.994625s-14.277171-31.994625-31.994625-31.994625zm-608.06988-63.989249c0-17.545439 14.449185-31.994625 31.994625-31.994625h320.806316c17.545439 0 31.306568 14.105157 31.306568 31.994625v63.989249h-384.107509z"/><path d="m736.048379 960.010751h-447.924744c-52.980346 0-95.983874-43.003528-95.983874-95.983874v-480.435411c0-17.717453 14.277171-31.994625 31.994625-31.994625s31.994625 14.277171 31.994625 31.994625v480.435411c0 17.717453 14.449185 31.994625 31.994625 31.994625h448.096758c17.717453 0 31.994625-14.277171 31.994625-31.994625l-.000001-479.231312c0-17.717453 14.277171-31.994625 31.994625-31.994625s31.994625 14.277171 31.994625 31.994625v479.231312c-.172015 52.808332-43.175543 95.983874-96.155889 95.983874z"/></g></svg>

<svg t="1663567322488" class="icon" viewBox="0 0 1024 1024" version="1.1" xmlns="http://www.w3.org/2000/svg" p-id="4253" width="32" height="32"><path d="M607.897867 768.043004c-17.717453 0-31.994625-14.277171-31.994625-31.994625L575.903242 383.935495c0-17.717453 14.277171-31.994625 31.994625-31.994625s31.994625 14.277171 31.994625 31.994625l0 351.94087C639.892491 753.593818 625.61532 768.043004 607.897867 768.043004z" p-id="4254" fill="#8a8a8a"></path><path d="M415.930119 768.043004c-17.717453 0-31.994625-14.277171-31.994625-31.994625L383.935495 383.935495c0-17.717453 14.277171-31.994625 31.994625-31.994625 17.717453 0 31.994625 14.277171 31.994625 31.994625l0 351.94087C447.924744 753.593818 433.647573 768.043004 415.930119 768.043004z" p-id="4255" fill="#8a8a8a"></path><path d="M928.016126 223.962372l-159.973123 0L768.043004 159.973123c0-52.980346-42.659499-95.983874-95.295817-95.983874L351.94087 63.989249c-52.980346 0-95.983874 43.003528-95.983874 95.983874l0 63.989249-159.973123 0c-17.717453 0-31.994625 14.277171-31.994625 31.994625s14.277171 31.994625 31.994625 31.994625l832.032253 0c17.717453 0 31.994625-14.277171 31.994625-31.994625S945.73358 223.962372 928.016126 223.962372zM319.946246 159.973123c0-17.545439 14.449185-31.994625 31.994625-31.994625l320.806316 0c17.545439 0 31.306568 14.105157 31.306568 31.994625l0 63.989249L319.946246 223.962372 319.946246 159.973123 319.946246 159.973123z" p-id="4256" fill="#8a8a8a"></path><path d="M736.048379 960.010751 288.123635 960.010751c-52.980346 0-95.983874-43.003528-95.983874-95.983874L192.139761 383.591466c0-17.717453 14.277171-31.994625 31.994625-31.994625s31.994625 14.277171 31.994625 31.994625l0 480.435411c0 17.717453 14.449185 31.994625 31.994625 31.994625l448.096758 0c17.717453 0 31.994625-14.277171 31.994625-31.994625L768.215018 384.795565c0-17.717453 14.277171-31.994625 31.994625-31.994625s31.994625 14.277171 31.994625 31.994625l0 479.231312C832.032253 916.835209 789.028725 960.010751 736.048379 960.010751z" p-id="4257" fill="#8a8a8a"></path></svg>
